X:1
T:Title
%%score ( 1 2 ) ( 3 4 )
L:1/8
Q:1/4=60
M:4/4
K:Bb
V:1 treble 
V:2 treble 
V:3 bass 
V:4 bass 
V:1
"^Theme From Schindler's List" z4 z2 D2 | dGdG edBD | BC[EB]c d4 | dGdG [=Ff]e[Fd]c | %4
 [G,F]E[A,A]c [_Ge][Fd][Ec][DB] | cEcE d c Bc | d6 z D | cEcE d c BA | [G,G]4 D2 C2 | %9
 [B,EB]CBC d c BA | G3 d [B=g]4 | z d/c/ ed A>B c2- | cB/c/ AG/^F/ A G3 | z d/c/ fe A>B c2- | %14
 cC/D/ EE/F/ [CG]A/B/ [GA^c]2 | dGdG [Ge]dBD | [B,EB]C[B,EB][Cc] [Dd]4 | [DGd]GdG [=Ff]e[Fd]c | %18
 [G,F]E[A,A]c [_Ge][Fd][Ec][DB] | [=Gc]EcE d c Bc | [Dd]4 A2 G2 | [EGc]E[EGc]E [CGd]c[CD^FB]A | %22
 [G,DG]2 G/B,/D/E/ [CA]4 | [B,EB]CBC [EGd]c[C^FB]A | x5 z2 z | G3 B dgbd' | !arpeggio![bd'g']8 |] %27
V:2
 x8 | x8 | x4 F2 ^F2 | x8 | x8 | C4 [C=G]2 [C^F]2 | A2 G2 ^F2 G2 | x4 G2 ^F2 | x8 | x4 G2 ^F2 | %10
 x8 | x8 | x8 | x8 | x8 | x8 | x8 | x8 | x8 | C4 G2 ^F2 | x8 | x8 | x8 | x8 | EDC E2 [CD]2 x | x8 | %26
 x8 |] %27
V:3
 z8 | B,2 B,2 B,2 B,2 | E,2 G,A, CB, A,2 | B,2 B,2 [B,E]2 [B,E]2 | [F,,E,]4 F,2 F,2 | %5
 [A,,E,G,]4 [D,,A,,D,]4 | [D,B,]4 [D,B,]4 | x4 C2 C2 | [E,,B,,E,]4 [A,,G,]2 [D,,^F,]2 | x4 C2 C2 | %10
 G,,D,B,D [G,D]4 | z [B,D]2 [B,D] z [A,CE]2 [A,CE] | z [A,CE]2 [A,CE] z [B,D]2 [B,D] | %13
 z [G,B,D] [G,A,CE]2 z [A,CE]2 [A,CE] | z E,2 G, [A,,G,]2 [_E,^C]2 | %15
 !arpeggio![G,,D,B,]4 [G,,D,B,]2 [D,B,]2 | z2 [C,,G,,E,]2 [F,,C,G,]A, [B,,F,C]B, | %17
 x4 [B,E]2 [B,E]2 | [F,,E,]4 [F,C] B, ^F,=G, | x4 [A,C]2 C2 | x4 D,4 | [A,,G,]3 A,, [D,G,]2 D,2 | %22
 E,,/B,,/D,/E,/ G,2 [A,,G,]2 [D,,^F,]2 | [C,,G,,E,]4 [A,,G,]2 [D,,D,]2 | %24
 G,,2 A,,2 [C,G,]2 [D,^F,]2 | G,,D,B,D[K:treble] GB d2 | !arpeggio![Gdg]8 |] %27
V:4
 x8 | !arpeggio![G,,D,]8 | [C,,G,,]2 [F,,E,]2 !arpeggio![B,,F,]2 D,2 | %3
 !arpeggio![G,,D,]4 !arpeggio!C,4 | x4 B,,4 | x8 | G,,8 | [A,,E,G,]4 D,4 | x8 | [C,,G,,E,]4 D,4 | %10
 x8 | G,4 G,4 | G,4 G,4 | G,,4 G,4 | A,,4 x4 | x8 | x8 | !arpeggio![G,,D,B,]2 [D,A,]G, C,4 | %18
 x4 B,,2 B,,2 | !arpeggio![A,,E,G,]4 D,4 | [G,,D,B,]4 G,,2 =F,,2 | x8 | x8 | x8 | x8 | %25
 x4[K:treble] x4 | x8 |] %27

